lib/assets/images/arrow_up_24.svg

<svg width="24" height="24" viewBox="0 0 24 24" fill="none" xmlns="http://www.w3.org/2000/svg">
<path fill-rule="evenodd" clip-rule="evenodd" d="M11.9999 10.5177L6.03018 16.4874C5.73729 16.7803 5.26242 16.7803 4.96952 16.4874L4.61597 16.1338C4.32308 15.841 4.32308 15.3661 4.61597 15.0732L10.9393 8.74989C11.5251 8.1641 12.4748 8.1641 13.0606 8.74989L19.3838 15.0731C19.6767 15.366 19.6767 15.8409 19.3838 16.1338L19.0303 16.4873C18.7374 16.7802 18.2625 16.7802 17.9696 16.4873L11.9999 10.5177Z" fill="#99A0AB"/>
</svg>

<svg width="24" height="24" fill="none" xmlns="http://www.w3.org/2000/svg"><path fill-rule="evenodd" clip-rule="evenodd" d="M12 10.518l-5.97 5.97a.75.75 0 0 1-1.06 0l-.354-.354a.75.75 0 0 1 0-1.06l6.323-6.324a1.5 1.5 0 0 1 2.122 0l6.323 6.323a.75.75 0 0 1 0 1.06l-.354.354a.75.75 0 0 1-1.06 0L12 10.517z" fill="#99A0AB"/></svg>
